X:336
T: DES MORGENS ZWISCHEN DREIN UND VIEREN
N: F0580
O: Europa, Mitteleuropa, Deutschland
R: Soldaten - Lied
M: 4/4
L: 1/8
K: G
GB | dddgB2G2 | e2d2z2
GB | ddddedcB | B2A2z2
GB | d3BcBcd | B2z4
ge | d3BdcBA | G2z
Gdddd | dBcAGddd | dBcA
ggfe | d3BdcBA | G2z4

@@@ Tune index: 5767
